X:1
T:Title
%%score ( 1 2 ) { 3 | 4 }
L:1/8
Q:1/4=100
M:4/4
K:A
V:1 treble nm="Grand Piano, Soprano"
V:2 treble 
V:3 bass nm="Choir Pad, Guildford, 99.99 D"
V:4 bass 
V:1
 [Ec]2 [Ec]>[DB] [CA]2 [CE]2 | [DF]2 [FA]>[DF] .[CE]4 | [EA]2 [EB]>[EB] [Ec]2 [CA]2 | %3
w: By~J.~H.~Kissinger,~1881 * * * *|||
 [Fd]2 [Ec]>[Ec] [EB]4 | [Ec]2 [Ec]>[DB] [CA]2 [CE]2 | [DF]2 [FA]>[DF] .[CE]4 | %6
w: |||
 [EA]2 [EB]>[EB] [Ec]2 [Fd]>[FB] | [EA]2 [EG]2 [EA]4 | [EG]2 [EG]>[FA] [GB]2 [Ac]>[Ac] | %9
w: |||
 [Ae]2 [Ac]2 [GB]4 | [EG]2 [EG]>[FA] [GB]2 [Ac]>[Ac] | [Ge]2 [F^d]2 [Ge]4 | %12
w: |||
 [Ee]2 [Ec]>[DB] [CA]2 E>E | [DF]2 [FA][DF] [CE]4 | z4 z2 .d2 | [EA]2 [EG]>[EG] [EA]4- | %16
w: ||||
 [EA]4 z4 |] %17
w: |
V:2
 x8 | x8 | x8 | x8 | x8 | x8 | x8 | x8 | x8 | x8 | x8 | x8 | x8 | x8 | %14
 [EA]2 [EB]>[EB] [Ec]2 F-[FB] | x8 | x8 |] %17
V:3
 A,2 A,>A, A,2 A,2 | A,2 A,>A, .A,4 | A,2 G,>G, A,2 A,2 | A,2 A,>A, G,4 | A,2 A,>A, A,2 A,2 | %5
 A,2 A,>A, .A,4 | A,2 G,>G, A,2 A,>[K:treble]D | C2 B,D C4 | B,2 B,>B, E2 E>[K:treble]E | %9
 C2 E2 E4 | B,2 B,>B, E2 E>E | B,2 B,2 B,4 | C2 A,>A, A,2 A,>A, | A,2 A,2 A,4 | %14
 A,2 G,>G, A,2 A,[K:treble]D | C2 B,>D C4- | C4 z4 |] %17
V:4
 A,,2 A,,>A,, A,,2 A,,2 | D,2 D,>D, .A,,4 | C,2 E,>E, A,,2 A,,2 | D,2 A,,>A,, E,4 | %4
 A,,2 A,,>A,, A,,2 A,,2 | D,2 D,>D, .A,,4 | C,2 E,>E, A,,2 D,>D, | E,2 E,2 A,,4 | %8
 E,2 E,>E, E,2 A,>A, | A,2 A,2 E,4 | E,2 E,>E, E,2 A,>A, | z2 B,,2 E,4 | A,2 z2 A,,2 C,>C, | %13
 D,2 D,2 A,,4 | C,2 E,>E, z2 D,2 | E,2 E,>E, A,,4- | A,,4 z4 |] %17

